svgs/thin/hundred-points.svg

<svg xmlns="http://www.w3.org/2000/svg" viewBox="0 0 512 512"><!--! Font Awesome Pro 6.3.0 by @fontawesome - https://fontawesome.com License - https://fontawesome.com/license (Commercial License) Copyright 2023 Fonticons, Inc. --><path d="M179.5 86C182.5 55.37 208.2 32 238.1 32C274.3 32 301.9 62.4 298.5 97.51L284.5 241.1C281.5 272.6 255.8 296 225 296C189.7 296 162.1 265.6 165.5 230.5L179.5 86zM238.1 48C216.5 48 197.6 65.11 195.4 87.54L181.5 232C178.1 257.7 199.2 280 225 280C247.5 280 266.4 262.9 268.6 240.5L282.5 95.97C285 70.26 264.8 48 238.1 48H238.1zM124.8 33.51C127.1 35.19 128.3 37.96 127.9 40.8L95.95 312.8C95.43 317.2 91.45 320.4 87.06 319.1C82.68 319.5 79.54 315.6 80.05 311.2L110.4 52.95L51.15 79.3C47.09 81.11 42.38 79.3 40.65 75.27C38.91 71.24 40.79 66.51 44.85 64.7L116.9 32.7C119.5 31.53 122.5 31.84 124.8 33.51V33.51zM467.7 100.4L459.7 212.7C457.3 246.1 429.5 272 395.1 272C358.9 272 329.7 240.6 332.3 203.6L340.3 91.31C342.7 57.89 370.5 32 404 32C441.1 32 470.3 63.44 467.7 100.4V100.4zM348.3 204.7C346.3 232.4 368.2 256 395.1 256C421.1 256 441.9 236.6 443.7 211.6L451.7 99.27C453.7 71.56 431.8 48 404 48C378.9 48 358.1 67.4 356.3 92.45L348.3 204.7zM511.9 326.7C512.6 331.1 509.6 335.2 505.3 335.9L9.275 415.9C4.913 416.6 .807 413.6 .1034 409.3C-.6003 404.9 2.365 400.8 6.727 400.1L502.7 320.1C507.1 319.4 511.2 322.4 511.9 326.7V326.7zM193.2 463.9C188.8 464.6 184.7 461.5 184.1 457.2C183.4 452.8 186.5 448.7 190.8 448.1L462.8 408.1C467.2 407.4 471.3 410.5 471.9 414.8C472.6 419.2 469.5 423.3 465.2 423.9L193.2 463.9z"/></svg>

<svg xmlns="http://www.w3.org/2000/svg" viewBox="0 0 512 512"><!--! Font Awesome Pro 6.4.0 by @fontawesome - https://fontawesome.com License - https://fontawesome.com/license (Commercial License) Copyright 2023 Fonticons, Inc. --><path d="M179.5 86c3-30.6 28.7-54 59.5-54c35.3 0 62.9 30.4 59.5 65.5L284.5 242c-3 30.6-28.7 54-59.5 54c-35.3 0-62.9-30.4-59.5-65.5L179.5 86zM239 48c-22.5 0-41.4 17.1-43.6 39.5L181.5 232c-2.5 25.7 17.7 48 43.6 48c22.5 0 41.4-17.1 43.6-39.5L282.5 96C285 70.3 264.8 48 239 48zM124.8 33.5c2.3 1.7 3.5 4.4 3.2 7.3l-32 272c-.5 4.4-4.5 7.6-8.9 7.2s-7.5-4.4-7-8.8L110.4 53 51.2 79.3c-4.1 1.8-8.8 0-10.5-4s.1-8.8 4.2-10.6l72-32c2.6-1.2 5.7-.9 7.9 .8zM404 32c37.1 0 66.3 31.4 63.7 68.4l-8 112.3C457.3 246.1 429.5 272 396 272c-37.1 0-66.3-31.4-63.7-68.4l8-112.3C342.7 57.9 370.5 32 404 32zM356.3 92.4l-8 112.3c-2 27.7 20 51.3 47.7 51.3c25.1 0 45.9-19.4 47.7-44.4l8-112.3c2-27.7-20-51.3-47.7-51.3c-25.1 0-45.9 19.4-47.7 44.4zM511.9 326.7c.7 4.4-2.3 8.5-6.6 9.2l-496 80c-4.4 .7-8.5-2.3-9.2-6.6s2.3-8.5 6.6-9.2l496-80c4.4-.7 8.5 2.3 9.2 6.6zm-46.7 97.2l-272 40c-4.4 .6-8.4-2.4-9.1-6.7s2.4-8.4 6.8-9.1l272-40c4.4-.6 8.4 2.4 9.1 6.7s-2.4 8.4-6.8 9.1z"/></svg>
